jsapp/svg-icons/qt-audio-lock.svg

<svg height="642" viewBox="0 0 642 642" width="642" xmlns="http://www.w3.org/2000/svg"><path d="m495.11 229.46c33.379991 18.229183 54.247877 53.127669 54.51 91.16-18.67699-5.048813-38.270641-5.695773-57.24-1.89-.919623-16.488327-10.321263-31.321269-24.84-39.19-13.826411-7.617694-18.866168-24.997244-11.26-38.83 7.650824-13.785612 24.994672-18.810548 38.83-11.25zm-143.11 278.61c.023543-26.592068 15.79894-50.643855 40.18-61.26v-5.71c-.014012-11.868605 1.669706-23.678199 5-35.07v-285.03c0-25.56-30.91-38.08-48.78-20.22l-105.92 105.91h-121.48c-7.580701-.002654-14.851677 3.007592-20.212042 8.367958-5.3603656 5.360365-8.3679598 12.631341-8.3679598 20.212042v171.46c0 15.784298 12.7957038 28.58 28.5800018 28.58h121.48l105.939998 105.92c1.111305 1.112237 2.308326 2.135389 3.580002 3.06zm290 107.14c0 14.795708-11.994292 26.79-26.79 26.79h-196.42c-14.795708 0-26.79-11.994292-26.79-26.79v-107.14c0-14.795708 11.994292-26.79 26.79-26.79h13.39v-40.17c0-46.844792 37.975208-84.82 84.82-84.82s84.82 37.975208 84.82 84.82v40.18h13.39c14.791804 0 26.784479 11.988197 26.79 26.78zm-97.91-55.14c0-14.746003-11.953997-26.7-26.7-26.7s-26.7 11.953997-26.7 26.7 11.953997 26.7 26.7 26.7c14.730396 0 26.677932-11.929621 26.7-26.66zm13.09-119c0-22.190801-17.989199-40.18-40.18-40.18s-40.18 17.989199-40.18 40.18v40.18h80.36z"/></svg>

<svg id="Layer_1" data-name="Layer 1" xmlns="http://www.w3.org/2000/svg" viewBox="0 0 642 642"><path d="M456.28,240.71a28.68,28.68,0,0,1,38.83-11.25,104.69,104.69,0,0,1,54.51,91.16,125.07,125.07,0,0,0-57.24-1.89,47.59,47.59,0,0,0-24.84-39.19A28.6,28.6,0,0,1,456.28,240.71ZM352,508.07a66.88,66.88,0,0,1,40.18-61.26v-5.71a124.46,124.46,0,0,1,5-35.07V121c0-25.56-30.91-38.08-48.78-20.22L242.48,206.69H121a28.57,28.57,0,0,0-28.58,28.58V406.73A28.58,28.58,0,0,0,121,435.31H242.48L348.42,541.23a30,30,0,0,0,3.58,3.06Zm290,0V615.21A26.79,26.79,0,0,1,615.21,642H418.79A26.79,26.79,0,0,1,392,615.21V508.07a26.79,26.79,0,0,1,26.79-26.79h13.39V441.11a84.82,84.82,0,0,1,169.64,0v40.18h13.39A26.79,26.79,0,0,1,642,508.07Zm-97.91,52a26.7,26.7,0,1,0-26.7,26.7A26.7,26.7,0,0,0,544.09,560.11Zm13.09-119a40.18,40.18,0,1,0-80.36,0v40.18h80.36Z"/></svg>
